src/img/social/instagramFooter.svg

<svg width="34" height="34" viewBox="0 0 34 34" fill="none" xmlns="http://www.w3.org/2000/svg">
    <path fill-rule="evenodd" clip-rule="evenodd" d="M17 34C26.3888 34 34 26.3888 34 17C34 7.61116 26.3888 0 17 0C7.61116 0 0 7.61116 0 17C0 26.3888 7.61116 34 17 34Z" fill="white"/>
    <path fill-rule="evenodd" clip-rule="evenodd" d="M13.8125 8.5H20.1875C23.1211 8.5 25.5 10.8789 25.5 13.8125V20.1875C25.5 23.1211 23.1211 25.5 20.1875 25.5H13.8125C10.8789 25.5 8.5 23.1211 8.5 20.1875V13.8125C8.5 10.8789 10.8789 8.5 13.8125 8.5ZM20.1875 23.9062C22.2381 23.9062 23.9062 22.2381 23.9062 20.1875V13.8125C23.9062 11.7619 22.2381 10.0938 20.1875 10.0938H13.8125C11.7619 10.0938 10.0938 11.7619 10.0938 13.8125V20.1875C10.0938 22.2381 11.7619 23.9062 13.8125 23.9062H20.1875Z" fill="#12122F"/>
    <path fill-rule="evenodd" clip-rule="evenodd" d="M12.75 17C12.75 14.6529 14.6529 12.75 17 12.75C19.3471 12.75 21.25 14.6529 21.25 17C21.25 19.3471 19.3471 21.25 17 21.25C14.6529 21.25 12.75 19.3471 12.75 17ZM14.3438 17C14.3438 18.4641 15.5359 19.6562 17 19.6562C18.4641 19.6562 19.6562 18.4641 19.6562 17C19.6562 15.5348 18.4641 14.3438 17 14.3438C15.5359 14.3438 14.3438 15.5348 14.3438 17Z" fill="#12122F"/>
    <path d="M21.6055 13.459C22.1923 13.459 22.668 12.9833 22.668 12.3965C22.668 11.8097 22.1923 11.334 21.6055 11.334C21.0187 11.334 20.543 11.8097 20.543 12.3965C20.543 12.9833 21.0187 13.459 21.6055 13.459Z" fill="#12122F"/>
</svg>

<svg width="34" height="34" fill="none" xmlns="http://www.w3.org/2000/svg"><path fill-rule="evenodd" clip-rule="evenodd" d="M17 34c9.389 0 17-7.611 17-17S26.389 0 17 0 0 7.611 0 17s7.611 17 17 17z" fill="#fff"/><path fill-rule="evenodd" clip-rule="evenodd" d="M13.813 8.5h6.374a5.313 5.313 0 015.313 5.313v6.374a5.313 5.313 0 01-5.313 5.313h-6.375A5.313 5.313 0 018.5 20.187v-6.375A5.313 5.313 0 0113.813 8.5zm6.374 15.406a3.723 3.723 0 003.72-3.718v-6.375a3.723 3.723 0 00-3.72-3.72h-6.375a3.723 3.723 0 00-3.718 3.72v6.374a3.723 3.723 0 003.719 3.72h6.374z" fill="#12122F"/><path fill-rule="evenodd" clip-rule="evenodd" d="M12.75 17a4.25 4.25 0 118.5 0 4.25 4.25 0 01-8.5 0zm1.594 0A2.66 2.66 0 0017 19.656 2.66 2.66 0 0019.656 17 2.66 2.66 0 0017 14.344 2.66 2.66 0 0014.344 17z" fill="#12122F"/><path d="M21.605 13.459a1.063 1.063 0 100-2.125 1.063 1.063 0 000 2.125z" fill="#12122F"/></svg>
